X: 1
T: Sean Nugent's March
Z: ceolachan
S: https://thesession.org/tunes/11952#setting11952
R: barndance
M: 4/4
L: 1/8
K: Dmaj
|: d>e |fd g>e fd AF | GE AF D2 e>f | g/a/b ec dB c/B/A | GE F/E/D E2 d>e |
fd g>e fd AF | GB ef g>f ed | c/d/e AF G[A,A] [Cc][Ee] | [D2d2] [Dd]>[CEce] [D2d2] :|
|: c>d |eA c/B/A EA g/f/e | fa g/f/e d2 e>f | g/a/b ec dB c/B/A | dA GE FG A>G |
F/E/D B>A GE A>G | FA ef g>f ed | c/d/e AF G[A,A] [Cc][Ee] | [D2d2] [Dd]>[CEce] [D2d2] :|
